public/tiktok.svg

<svg fill="none" height="32" viewBox="0 0 32 32" width="32" xmlns="http://www.w3.org/2000/svg" xmlns:xlink="http://www.w3.org/1999/xlink"><clipPath id="a"><path d="m3.20001 3.19995h25.6v25.6h-25.6z"/></clipPath><g clip-path="url(#a)"><path d="m18.0481 28.7996h-4.0986c-.1071-.0125-.2117-.0324-.3188-.0399-1.9671-.137-3.9342-.2465-5.89883-.4134-1.98456-.1694-3.73256-1.7583-4.01393-3.7333-.22161-1.5441-.28885-3.1131-.41086-4.6722-.05478-.645-.0747-1.2926-.10707-1.9401 0-1.3499 0-2.6997 0-4.0496.01245-.0971.03237-.1942.03984-.2914.13695-1.9849.24901-3.97234.41584-5.95478.16932-2.04223 1.9472-3.82045 3.98405-4.04709 2.2211-.24905 4.44716-.3935 6.68076-.44082 3.3516-.07223 6.6957.07222 10.0298.43833 2.012.22165 3.7923 1.97 3.9866 3.99229.1693 1.74834.3137 3.50167.3934 5.25497.1718 3.7931.0299 7.5787-.376 11.3543-.2166 2.0073-1.7679 3.7507-3.7624 4.0296-1.5563.2192-3.1325.2864-4.7012.411-.6126.0498-1.2276.0672-1.8426.1021zm1.1379-20.78088h-2.495v.31131 10.37297c0 .1818-.01.3661-.0324.5479-.1693 1.32-1.2973 2.2814-2.6519 2.2589-1.3122-.0199-2.3979-1.0285-2.5423-2.361-.1394-1.2801.7495-2.5403 2.0269-2.7869.4831-.0946.9935-.0547 1.4915-.0747.1046-.005.2092 0 .3113 0v-2.488c-.4283 0-.8342-.005-1.2425 0-.2167.0025-.4333.0174-.6474.0448-2.8038.3537-4.8058 2.9812-4.39495 5.7656.41086 2.7769 2.89095 4.6697 5.69225 4.3484 2.4402-.2814 4.3899-2.3685 4.4472-4.8241.0398-1.7235.0149-3.4494.0174-5.1728 0-.0947 0-.1918 0-.3437 1.2226.7696 2.5274.7895 3.862.7198v-2.4706c-.132 0-.2465 0-.361 0-.4233-.0075-.8566.0274-1.2724-.0349-1.2625-.1893-2.1564-1.2154-2.2062-2.4955-.0174-.43086-.0025-.86421-.0025-1.31499z" fill="#404b59"/></g></svg>

<svg width="32" height="32" viewBox="0 0 32 32" fill="none" xmlns="http://www.w3.org/2000/svg">
<g clip-path="url(#clip0_11_3302)">
<path d="M18.0481 28.7996H13.9495C13.8424 28.7871 13.7378 28.7672 13.6307 28.7597C11.6636 28.6227 9.6965 28.5132 7.73187 28.3463C5.74731 28.1769 3.99931 26.588 3.71794 24.613C3.49633 23.0689 3.42909 21.4999 3.30708 19.9408C3.2523 19.2958 3.23238 18.6482 3.20001 18.0007C3.20001 16.6508 3.20001 15.301 3.20001 13.9511C3.21246 13.854 3.23238 13.7569 3.23985 13.6597C3.3768 11.6748 3.48886 9.68736 3.65569 7.70492C3.82501 5.66269 5.60289 3.88447 7.63974 3.65783C9.86084 3.40878 12.0869 3.26433 14.3205 3.21701C17.6721 3.14478 21.0162 3.28923 24.3503 3.65534C26.3623 3.87699 28.1426 5.62534 28.3369 7.64763C28.5062 9.39597 28.6506 11.1493 28.7303 12.9026C28.9021 16.6957 28.7602 20.4813 28.3543 24.2569C28.1377 26.2642 26.5864 28.0076 24.5919 28.2865C23.0356 28.5057 21.4594 28.5729 19.8907 28.6975C19.2781 28.7473 18.6631 28.7647 18.0481 28.7996ZM19.186 8.01872H16.691C16.691 8.13328 16.691 8.2329 16.691 8.33003C16.691 11.7869 16.691 15.2462 16.691 18.703C16.691 18.8848 16.681 19.0691 16.6586 19.2509C16.4893 20.5709 15.3613 21.5323 14.0067 21.5098C12.6945 21.4899 11.6088 20.4813 11.4644 19.1488C11.325 17.8687 12.2139 16.6085 13.4913 16.3619C13.9744 16.2673 14.4848 16.3072 14.9828 16.2872C15.0874 16.2822 15.192 16.2872 15.2941 16.2872V13.7992C14.8658 13.7992 14.4599 13.7942 14.0516 13.7992C13.8349 13.8017 13.6183 13.8166 13.4042 13.844C10.6004 14.1977 8.5984 16.8252 9.00925 19.6096C9.42011 22.3865 11.9002 24.2793 14.7015 23.958C17.1417 23.6766 19.0914 21.5895 19.1487 19.1339C19.1885 17.4104 19.1636 15.6845 19.1661 13.9611C19.1661 13.8664 19.1661 13.7693 19.1661 13.6174C20.3887 14.387 21.6935 14.4069 23.0281 14.3372V11.8666C22.8961 11.8666 22.7816 11.8666 22.6671 11.8666C22.2438 11.8591 21.8105 11.894 21.3947 11.8317C20.1322 11.6424 19.2383 10.6163 19.1885 9.3362C19.1711 8.90534 19.186 8.47199 19.186 8.02121V8.01872Z" fill="#404B59"/>
</g>
<defs>
<clipPath id="clip0_11_3302">
<rect width="25.6" height="25.6" fill="white" transform="translate(3.20001 3.19995)"/>
</clipPath>
</defs>
</svg>
